src/assets/background.svg

<svg height="609" viewBox="0 0 1361 609" width="1361" xmlns="http://www.w3.org/2000/svg"><g fill="none" fill-rule="evenodd" transform="translate(-2 -9)"><g opacity=".8" transform="matrix(.99254615 -.12186934 .12186934 .99254615 0 534.061708)"><g fill="#cfdae6"><ellipse cx="63.574879" cy="32.468367" opacity=".25" rx="21.783048" ry="21.766008"/><ellipse cx="5.987465" cy="13.86686" opacity=".6" rx="5.217391" ry="5.21331"/><path d="m38.1354514 88.3520215c5.7629713 0 10.4347826-4.6681568 10.4347826-10.42662s-4.6718113-10.4266199-10.4347826-10.4266199-10.4347826 4.6681567-10.4347826 10.4266199 4.6718113 10.42662 10.4347826 10.42662z" opacity=".45"/></g><path d="m64.2775582 33.1704963 54.9082778-16.6050048" stroke="#cfdae6" stroke-linecap="round" stroke-linejoin="round" stroke-width="1.73913"/><path d="m42.1431708 26.5002681-34.43126918-11.9361979" style="stroke:#e0b4b7;stroke-width:.702679;opacity:.7;stroke-linecap:round;stroke-linejoin:round;stroke-dasharray:1.405358 2.108037"/><path d="m63.9262187 33.521561-20.2540861 35.8035341" stroke="#bacad9" stroke-dasharray="1.405358 2.108037" stroke-linecap="round" stroke-linejoin="round" stroke-width=".702679"/><g fill="#cfdae6" transform="matrix(.8660254 .5 -.5 .8660254 123.148084 .826724)"><ellipse cx="9.134827" cy="9.127681" opacity=".45" rx="9.134827" ry="9.127681"/><path d="m18.2696531 18.2553615c0-5.0410789-4.0898012-9.12768074-9.13482657-9.12768074-5.04502539 0-9.13482653 4.08660184-9.13482653 9.12768074z" transform="matrix(-1 0 0 -1 18.269654 27.383042)"/></g></g><g transform="matrix(.9961947 -.08715574 .08715574 .9961947 99 45.149501)"><ellipse cx="29.117647" cy="29.140244" fill="#cfdae6" opacity=".25" rx="29.117647" ry="29.140244"/><ellipse cx="29.117647" cy="29.140244" fill="#cfdae6" opacity=".3" rx="21.568628" ry="21.585366"/><ellipse cx="179.019608" cy="138.146341" opacity=".4" rx="23.72549" ry="23.743902" stroke="#cfdae6"/><ellipse cx="29.117647" cy="29.140244" fill="#bacad9" opacity=".5" rx="10.784314" ry="10.792683"/><path d="m29.1176471 39.9329268v-21.5853658c-5.956012 0-10.7843138 4.8320487-10.7843138 10.7926829s4.8283018 10.7926829 10.7843138 10.7926829z" fill="#bacad9"/><g fill="#e6a1a6" opacity=".45" transform="translate(172 131)"><ellipse cx="7.019608" cy="7.146341" rx="6.470588" ry="6.47561"/><path d="m.54901961 13.6219512c3.5736072 0 6.47058823-2.8992292 6.47058823-6.47560974 0-3.57638051-2.89698103-6.47560975-6.47058823-6.47560975z" transform="matrix(-1 0 0 1 7.568628 0)"/></g><ellipse cx="218.382353" cy="138.685976" fill="#cfdae6" rx="1.617647" ry="1.618902"/><ellipse cx="179.558824" cy="175.381098" fill="#e0b4b7" opacity=".35" rx="1.617647" ry="1.618902"/><ellipse cx="180.098039" cy="102.530488" fill="#e0b4b7" opacity=".35" rx="2.156863" ry="2.158537"/><path d="m28.9985381 29.9671598 142.1524799 102.9088642" opacity=".8" stroke="#cfdae6"/></g><g opacity=".8" transform="matrix(.98162718 -.190809 .190809 .98162718 1021 10.494495)"><ellipse cx="43.813559" cy="32" rx="11.186441" ry="11.294118" stroke="#cfdae6" stroke-width=".941176"/><g fill="#bacad9" transform="translate(34.596774 23.111111)"><ellipse cx="9.185347" cy="8.888889" opacity=".45" rx="8.474576" ry="8.55615"/><path d="m9.18534718 17.4450386c4.68037922 0 8.47457632-3.8307187 8.47457632-8.55614971 0-4.72543102-3.7941971-8.55614973-8.47457632-8.55614973z"/></g><path d="m34.6597385 24.809694-28.94307766-20.04090455" stroke="#cfdae6" stroke-width=".941176"/><ellipse cx="3.262712" cy="3.294118" rx="3.262712" ry="3.294118" stroke="#cfdae6" stroke-width=".941176"/><ellipse cx="2.79661" cy="61.176471" fill="#f7e1ad" rx="2.79661" ry="2.823529"/><path d="m34.6312443 39.2922712-29.56757767 20.4928108" stroke="#cfdae6" stroke-width=".941176"/></g><g opacity=".33" transform="matrix(.98480775 -.17364818 .17364818 .98480775 1124 353.621489)"><g fill="#bacad9" transform="matrix(.08715574 -.9961947 .9961947 .08715574 128.333334 115.411209)"><circle cx="11.666667" cy="11.666667" opacity=".45" r="11.666667"/><path d="m23.3333333 23.3333333c0-6.443322-5.2233446-11.6666666-11.6666666-11.6666666-6.44332211 0-11.6666667 5.2233446-11.6666667 11.6666666z" transform="matrix(-1 0 0 -1 23.333334 35)"/></g><circle cx="201.833333" cy="87.5" fill="#cfdae6" r="5.833333"/><g stroke-width="1.166667"><path d="m143.5 88.8126685 11.570501-71.2088141" stroke="#bacad9"/><path d="m17.5 37.3333333 109.966252 60.3116402" stroke="#bacad9"/><path d="m143.902597 120.302281 31.032858 111.269061-136.435455-84.060495 87.866941-36.677514" stroke="#cfdae6"/><path d="m159.833333 99.7453842 35.583334-10.4953842" opacity=".6" stroke="#e0b4b7"/><path d="m205.333333 82.1372105 33.386073-45.9705438" stroke="#bacad9"/><path d="m266.723424 132.231988-59.640091-41.8153213" stroke="#cfdae6"/></g><circle cx="156.916667" cy="8.75" fill="#c1d1e0" r="8.75"/><circle cx="39.083333" cy="148.75" fill="#c1d1e0" r="5.25"/><circle cx="8.75" cy="33.25" fill="#d1deed" fill-opacity=".6" r="8.75"/><circle cx="243.833333" cy="30.333333" fill="#d1deed" fill-opacity=".6" r="5.833333"/><circle cx="175.583333" cy="232.75" fill="#e0b4b7" r="5.25"/></g></g></svg>

<?xml version="1.0" encoding="UTF-8" standalone="no"?>
<svg width="1361px" height="609px" viewBox="0 0 1361 609" version="1.1" xmlns="http://www.w3.org/2000/svg" xmlns:xlink="http://www.w3.org/1999/xlink">
    <!-- Generator: Sketch 46.2 (44496) - http://www.bohemiancoding.com/sketch -->
    <title>Group 21</title>
    <desc>Created with Sketch.</desc>
    <defs></defs>
    <g id="Ant-Design-Pro-3.0" stroke="none" stroke-width="1" fill="none" fill-rule="evenodd">
        <g id="账户密码登录-校验" transform="translate(-79.000000, -82.000000)">
            <g id="Group-21" transform="translate(77.000000, 73.000000)">
                <g id="Group-18" opacity="0.8" transform="translate(74.901416, 569.699158) rotate(-7.000000) translate(-74.901416, -569.699158) translate(4.901416, 525.199158)">
                    <ellipse id="Oval-11" fill="#CFDAE6" opacity="0.25" cx="63.5748792" cy="32.468367" rx="21.7830479" ry="21.766008"></ellipse>
                    <ellipse id="Oval-3" fill="#CFDAE6" opacity="0.599999964" cx="5.98746479" cy="13.8668601" rx="5.2173913" ry="5.21330997"></ellipse>
                    <path d="M38.1354514,88.3520215 C43.8984227,88.3520215 48.570234,83.6838647 48.570234,77.9254015 C48.570234,72.1669383 43.8984227,67.4987816 38.1354514,67.4987816 C32.3724801,67.4987816 27.7006688,72.1669383 27.7006688,77.9254015 C27.7006688,83.6838647 32.3724801,88.3520215 38.1354514,88.3520215 Z" id="Oval-3-Copy" fill="#CFDAE6" opacity="0.45"></path>
                    <path d="M64.2775582,33.1704963 L119.185836,16.5654915" id="Path-12" stroke="#CFDAE6" stroke-width="1.73913043" stroke-linecap="round" stroke-linejoin="round"></path>
                    <path d="M42.1431708,26.5002681 L7.71190162,14.5640702" id="Path-16" stroke="#E0B4B7" stroke-width="0.702678964" opacity="0.7" stroke-linecap="round" stroke-linejoin="round" stroke-dasharray="1.405357899873153,2.108036953469981"></path>
                    <path d="M63.9262187,33.521561 L43.6721326,69.3250951" id="Path-15" stroke="#BACAD9" stroke-width="0.702678964" stroke-linecap="round" stroke-linejoin="round" stroke-dasharray="1.405357899873153,2.108036953469981"></path>
                    <g id="Group-17" transform="translate(126.850922, 13.543654) rotate(30.000000) translate(-126.850922, -13.543654) translate(117.285705, 4.381889)" fill="#CFDAE6">
                        <ellipse id="Oval-4" opacity="0.45" cx="9.13482653" cy="9.12768076" rx="9.13482653" ry="9.12768076"></ellipse>
                        <path d="M18.2696531,18.2553615 C18.2696531,13.2142826 14.1798519,9.12768076 9.13482653,9.12768076 C4.08980114,9.12768076 0,13.2142826 0,18.2553615 L18.2696531,18.2553615 Z" id="Oval-4" transform="translate(9.134827, 13.691521) scale(-1, -1) translate(-9.134827, -13.691521) "></path>
                    </g>
                </g>
                <g id="Group-14" transform="translate(216.294700, 123.725600) rotate(-5.000000) translate(-216.294700, -123.725600) translate(106.294700, 35.225600)">
                    <ellipse id="Oval-2" fill="#CFDAE6" opacity="0.25" cx="29.1176471" cy="29.1402439" rx="29.1176471" ry="29.1402439"></ellipse>
                    <ellipse id="Oval-2" fill="#CFDAE6" opacity="0.3" cx="29.1176471" cy="29.1402439" rx="21.5686275" ry="21.5853659"></ellipse>
                    <ellipse id="Oval-2-Copy" stroke="#CFDAE6" opacity="0.4" cx="179.019608" cy="138.146341" rx="23.7254902" ry="23.7439024"></ellipse>
                    <ellipse id="Oval-2" fill="#BACAD9" opacity="0.5" cx="29.1176471" cy="29.1402439" rx="10.7843137" ry="10.7926829"></ellipse>
                    <path d="M29.1176471,39.9329268 L29.1176471,18.347561 C23.1616351,18.347561 18.3333333,23.1796097 18.3333333,29.1402439 C18.3333333,35.1008781 23.1616351,39.9329268 29.1176471,39.9329268 Z" id="Oval-2" fill="#BACAD9"></path>
                    <g id="Group-9" opacity="0.45" transform="translate(172.000000, 131.000000)" fill="#E6A1A6">
                        <ellipse id="Oval-2-Copy-2" cx="7.01960784" cy="7.14634146" rx="6.47058824" ry="6.47560976"></ellipse>
                        <path d="M0.549019608,13.6219512 C4.12262681,13.6219512 7.01960784,10.722722 7.01960784,7.14634146 C7.01960784,3.56996095 4.12262681,0.670731707 0.549019608,0.670731707 L0.549019608,13.6219512 Z" id="Oval-2-Copy-2" transform="translate(3.784314, 7.146341) scale(-1, 1) translate(-3.784314, -7.146341) "></path>
                    </g>
                    <ellipse id="Oval-10" fill="#CFDAE6" cx="218.382353" cy="138.685976" rx="1.61764706" ry="1.61890244"></ellipse>
                    <ellipse id="Oval-10-Copy-2" fill="#E0B4B7" opacity="0.35" cx="179.558824" cy="175.381098" rx="1.61764706" ry="1.61890244"></ellipse>
                    <ellipse id="Oval-10-Copy" fill="#E0B4B7" opacity="0.35" cx="180.098039" cy="102.530488" rx="2.15686275" ry="2.15853659"></ellipse>
                    <path d="M28.9985381,29.9671598 L171.151018,132.876024" id="Path-11" stroke="#CFDAE6" opacity="0.8"></path>
                </g>
                <g id="Group-10" opacity="0.799999952" transform="translate(1054.100635, 36.659317) rotate(-11.000000) translate(-1054.100635, -36.659317) translate(1026.600635, 4.659317)">
                    <ellipse id="Oval-7" stroke="#CFDAE6" stroke-width="0.941176471" cx="43.8135593" cy="32" rx="11.1864407" ry="11.2941176"></ellipse>
                    <g id="Group-12" transform="translate(34.596774, 23.111111)" fill="#BACAD9">
                        <ellipse id="Oval-7" opacity="0.45" cx="9.18534718" cy="8.88888889" rx="8.47457627" ry="8.55614973"></ellipse>
                        <path d="M9.18534718,17.4450386 C13.8657264,17.4450386 17.6599235,13.6143199 17.6599235,8.88888889 C17.6599235,4.16345787 13.8657264,0.332739156 9.18534718,0.332739156 L9.18534718,17.4450386 Z" id="Oval-7"></path>
                    </g>
                    <path d="M34.6597385,24.809694 L5.71666084,4.76878945" id="Path-2" stroke="#CFDAE6" stroke-width="0.941176471"></path>
                    <ellipse id="Oval" stroke="#CFDAE6" stroke-width="0.941176471" cx="3.26271186" cy="3.29411765" rx="3.26271186" ry="3.29411765"></ellipse>
                    <ellipse id="Oval-Copy" fill="#F7E1AD" cx="2.79661017" cy="61.1764706" rx="2.79661017" ry="2.82352941"></ellipse>
                    <path d="M34.6312443,39.2922712 L5.06366663,59.785082" id="Path-10" stroke="#CFDAE6" stroke-width="0.941176471"></path>
                </g>
                <g id="Group-19" opacity="0.33" transform="translate(1282.537219, 446.502867) rotate(-10.000000) translate(-1282.537219, -446.502867) translate(1142.537219, 327.502867)">
                    <g id="Group-17" transform="translate(141.333539, 104.502742) rotate(275.000000) translate(-141.333539, -104.502742) translate(129.333539, 92.502742)" fill="#BACAD9">
                        <circle id="Oval-4" opacity="0.45" cx="11.6666667" cy="11.6666667" r="11.6666667"></circle>
                        <path d="M23.3333333,23.3333333 C23.3333333,16.8900113 18.1099887,11.6666667 11.6666667,11.6666667 C5.22334459,11.6666667 0,16.8900113 0,23.3333333 L23.3333333,23.3333333 Z" id="Oval-4" transform="translate(11.666667, 17.500000) scale(-1, -1) translate(-11.666667, -17.500000) "></path>
                    </g>
                    <circle id="Oval-5-Copy-6" fill="#CFDAE6" cx="201.833333" cy="87.5" r="5.83333333"></circle>
                    <path d="M143.5,88.8126685 L155.070501,17.6038544" id="Path-17" stroke="#BACAD9" stroke-width="1.16666667"></path>
                    <path d="M17.5,37.3333333 L127.466252,97.6449735" id="Path-18" stroke="#BACAD9" stroke-width="1.16666667"></path>
                    <polyline id="Path-19" stroke="#CFDAE6" stroke-width="1.16666667" points="143.902597 120.302281 174.935455 231.571342 38.5 147.510847 126.366941 110.833333"></polyline>
                    <path d="M159.833333,99.7453842 L195.416667,89.25" id="Path-20" stroke="#E0B4B7" stroke-width="1.16666667" opacity="0.6"></path>
                    <path d="M205.333333,82.1372105 L238.719406,36.1666667" id="Path-24" stroke="#BACAD9" stroke-width="1.16666667"></path>
                    <path d="M266.723424,132.231988 L207.083333,90.4166667" id="Path-25" stroke="#CFDAE6" stroke-width="1.16666667"></path>
                    <circle id="Oval-5" fill="#C1D1E0" cx="156.916667" cy="8.75" r="8.75"></circle>
                    <circle id="Oval-5-Copy-3" fill="#C1D1E0" cx="39.0833333" cy="148.75" r="5.25"></circle>
                    <circle id="Oval-5-Copy-2" fill-opacity="0.6" fill="#D1DEED" cx="8.75" cy="33.25" r="8.75"></circle>
                    <circle id="Oval-5-Copy-4" fill-opacity="0.6" fill="#D1DEED" cx="243.833333" cy="30.3333333" r="5.83333333"></circle>
                    <circle id="Oval-5-Copy-5" fill="#E0B4B7" cx="175.583333" cy="232.75" r="5.25"></circle>
                </g>
            </g>
        </g>
    </g>
</svg>
